assets/img/icons/duotone-icons/Cooking/Knife&fork#2.svg

<?xml version="1.0" encoding="UTF-8"?>
<svg width="24px" height="24px" viewBox="0 0 24 24" version="1.1" xmlns="http://www.w3.org/2000/svg" xmlns:xlink="http://www.w3.org/1999/xlink">
    <!-- Generator: Sketch 52.2 (67145) - http://www.bohemiancoding.com/sketch -->
    <title>Stockholm-icons / Cooking / Knife&amp;fork#2</title>
    <desc>Created with Sketch.</desc>
    <g id="Stockholm-icons-/-Cooking-/-Knife&amp;fork#2" stroke="none" stroke-width="1" fill="none" fill-rule="evenodd">
        <rect id="bound" x="0" y="0" width="24" height="24"></rect>
        <path d="M3.98842709,3.05999994 L11.0594949,10.1310678 L8.23106778,12.9594949 L3.98842709,8.71685419 C2.42632992,7.15475703 2.42632992,4.62209711 3.98842709,3.05999994 Z" id="Path-65" fill="#335EEA"></path>
        <path d="M17.7539614,3.90710683 L14.8885998,7.40921548 C14.7088587,7.62889898 14.7248259,7.94903916 14.9255342,8.14974752 C15.1262426,8.35045587 15.4463828,8.36642306 15.6660663,8.18668201 L19.1681749,5.32132039 L19.8752817,6.02842717 L17.0099201,9.53053582 C16.830179,9.75021933 16.8461462,10.0703595 17.0468546,10.2710679 C17.2475629,10.4717762 17.5677031,10.4877434 17.7873866,10.3080024 L21.2894953,7.44264073 L21.9966021,8.14974752 L18.8146215,11.331728 C17.4477865,12.6985631 15.2317091,12.6985631 13.8648741,11.331728 C12.4980391,9.96489301 12.4980391,7.74881558 13.8648741,6.38198056 L17.0468546,3.20000005 L17.7539614,3.90710683 Z" id="Combined-Shape" fill="#335EEA"></path>
        <path d="M11.0753788,13.9246212 C11.4715437,14.3207861 11.4876245,14.9579589 11.1119478,15.3736034 L6.14184561,20.8724683 C5.61370242,21.4567999 4.71186338,21.5023497 4.12753173,20.9742065 C4.10973311,20.9581194 4.09234327,20.9415857 4.0753788,20.9246212 C3.51843234,20.3676747 3.51843234,19.4646861 4.0753788,18.9077397 C4.09234327,18.8907752 4.10973311,18.8742415 4.12753173,18.8581544 L9.62639662,13.8880522 C10.0420411,13.5123755 10.6792139,13.5284563 11.0753788,13.9246212 Z" id="Rectangle" fill="#335EEA" opacity="0.3"></path>
        <path d="M13.0754022,13.9246212 C13.4715671,13.5284563 14.1087399,13.5123755 14.5243844,13.8880522 L20.0232493,18.8581544 C20.0410479,18.8742415 20.0584377,18.8907752 20.0754022,18.9077397 C20.6323487,19.4646861 20.6323487,20.3676747 20.0754022,20.9246212 C20.0584377,20.9415857 20.0410479,20.9581194 20.0232493,20.9742065 C19.4389176,21.5023497 18.5370786,21.4567999 18.0089354,20.8724683 L13.0388332,15.3736034 C12.6631565,14.9579589 12.6792373,14.3207861 13.0754022,13.9246212 Z" id="Rectangle-Copy" fill="#335EEA" opacity="0.3"></path>
    </g>
</svg>

<svg width="24" height="24" viewBox="0 0 24 24" xmlns="http://www.w3.org/2000/svg"><g fill="none" fill-rule="evenodd"><path d="M0 0h24v24H0z"/><path d="M3.988 3.06l7.071 7.071-2.828 2.828-4.243-4.242a4 4 0 010-5.657zM17.754 3.907L14.889 7.41a.552.552 0 00.777.778l3.502-2.866.707.707-2.865 3.503a.552.552 0 00.777.777l3.502-2.865.708.707-3.182 3.182a3.5 3.5 0 11-4.95-4.95L17.047 3.2l.707.707z" fill="#335EEA"/><path d="M11.075 13.925c.397.396.413 1.033.037 1.449l-4.97 5.498a1.426 1.426 0 11-2.014-2.014l5.498-4.97a1.052 1.052 0 011.45.037zM13.075 13.925a1.052 1.052 0 011.45-.037l5.498 4.97a1.426 1.426 0 11-2.014 2.014l-4.97-5.498a1.052 1.052 0 01.036-1.45z" fill="#335EEA" opacity=".3"/></g></svg>
